X: 23940
T: Lochaber Badger, The
R: reel
M: 4/4
K: Eminor
ed|B2AG AGE2|EEDE GDEG|B2AG AGE2|EDGD EEEG|
B2AG AGE2|EEDE GDEG|B2AG AGEG|EDGD EEEG||
EEDE GEA2-|A2AG AdB2-|B2AG AGE2|EDGD EEEG|
EEDE GEA2-|A2AG AdB2-|B2AG AGE2|EDGD EGAG||
B2AG AGE2|EEDE GDEG|B2AG AGE2|EDGD EEEd|
B2AG AGE2|EEDE GDEdj|B2AG AGE2|EDGD EEEG||
EEDE GEA2-|A2AG AdB2-|B2AG AGE2|EDGD EEEG|
EEDE GEA2-|A2AG AdB2-|B2AG AGE2|edgd egag||
b2ag ageg|eede gdeg|b2ag ageg|edgd e2ga|
b2ag age2|eede gdeg|b2ag age2|edgd eeeg||
eede gea2-|a2ag ad'b2-|b2ag age2|edgd eeeg|
eede gea2-|a2ag ad'b2-|b2ag agea|gedB AGed||
b2ag age2|eede gdeg|b2ag ageg|edgd egad'|
b2ag age2|eede gdeg|b2ag ageg|edgd ebag||
eede gea2-|a2ag ad'b2-|b2ag age2|edgd eeeg|
eede gea2-|a2ag ad'b2-|b2ag agea|edgd egag||
b2ag age2|eede gdeg|b2ag agez|"not sure about"edgd "the timing here"egzd'|
b2ag age2|eede gdeg|b2ag ageg|edgd eeeG||
EEDE GEA2-|A2AG AdB2-|B2AG AGEG|EDGD EEEG|
EEDE GEA2-|A2AG AdB2-|B3B ABdB|e3e dBde||
g3g edeg|a3a gega|b4b4|b4b4|b/a/g ede|e8||

